X:1
T:Ydrepolketten
C:Niklas Olsson
O:Östergötland
R:Polka
Z:Andy Davey 2018
N: finns i Riksförbundets Jubileumslåtar 2007
M:2/4
L:1/8
K:D
.A.f .d.a | .A.f .d.a | ag {a}g/f/g | gf {g}f/e/f |\
.A.f .d.a | .A.f .d.a | ag {a}g/e/c/e/ | ed dz :| 
|: AF A/A/A/A/ | BG B/B/B/B/ | c>A ce | {f}e/d/c/B/ BA |\
 AF A/A/A/A/ | BG B/B/B/B/ | c>A c/A/c/e/ | ed dz :| 
|: Af {g}f/e/f/g/ | ae {f}e/^d/e/f/ | gA ce | {f}e/d/c/b/ BA |\
 Af {g}f/e/f/g/ | ae {f}e/^d/e/f/ | gA ce/c/ | ed dz :|

